!!!COA:	Josquin des Prez
!!!CDT:	~1450-1521/08/27
!!!COM: Ninot le Petit
!!!OTL@@LAT:	Planxit autem David
!!!OTL2@@LAT:	Sagitta Jonathe
!!!AGN:	Motet
!!!SCT:	NJE 14.9
!!!SCA:	New Josquin Edition 14.9
!!!voices:	4
**kern	**kern	**kern	**kern
*staff4	*staff3	*staff2	*staff1
*Ivox	*Ivox	*Ivox	*Ivox
*I"Bassus	*I"Tenor	*I"Altus	*I"Superius
*I'B	*I'T	*I'A	*I'S
*>[A,B]	*>[A,B]	*>[A,B]	*>[A,B]
*>Part1[A]	*>Part1[A]	*>Part1[A]	*>Part1[A]
*>Part2[B]	*>Part2[B]	*>Part2[B]	*>Part2[B]
*>A	*>A	*>A	*>A
*clefF4	*clefGv2	*clefGv2	*clefG2
*k[b-]	*k[b-]	*k[b-]	*k[b-]
*M2/1	*M2/1	*M2/1	*M2/1
*met(C|)	*met(C|)	*met(C|)	*met(C|)
=1-	=1-	=1-	=1-
0c	0r	0r	0r
=2	=2	=2	=2
0c	0r	0r	0cc
=3	=3	=3	=3
0A	0c	0r	0cc
=4	=4	=4	=4
[0F	0c	0f	0a
=5	=5	=5	=5
0F]	0A	0f	0f
=6	=6	=6	=6
1.BB-	2F/	2.d\	1r
.	2.B-\	.	.
.	.	4c\	.
.	.	4d\	1f
.	4c\	4e\	.
[2B-\	[2d\	[2f\	.
=7	=7	=7	=7
4B-\]	4d\]	2f\]	1.b-
4A\	4c\	.	.
4G\	4B-\	4e\	.
4F\	4A/	4d\	.
1G	2B-\	1e	.
.	4c\	.	4a/
.	4B-\	.	4g/
=8	=8	=8	=8
0F;	0c;	0f;	0a;
=9	=9	=9	=9
1r	1r	1r	1r
1F	1c	1f	1a
=10	=10	=10	=10
0D	2d\	1.f	0a
.	1d	.	.
.	4c\	4e\	.
.	4B-\	4d\	.
=11	=11	=11	=11
1F	2A/	2c\	1a
.	2F/	1d	.
1E	2G/	.	2.g/
.	[2G/	2c\	.
.	.	.	4a/
=12	=12	=12	=12
1D	2G/]	2d\	2b-\
.	4F/	2.c\	1a
.	4E/	.	.
1D	1F	.	.
.	.	8B-\L	.
.	.	8c\J	.
.	.	2B-\	4g/
.	.	.	4f/
=13	=13	=13	=13
1C	0G	1c	1e
2r	.	2r	2r
2C/	.	2c\	2e/
=14	=14	=14	=14
1AA	2r	1c	1f
.	2A/	.	.
1GG	1B-	1d	1g
=15	=15	=15	=15
1C	1c	1G	1e
2r	1A	2r	2r
2D\	.	2F/	2f/
=16	=16	=16	=16
2D\	2r	2F/	2f/
4C/	2B-\	1G	4e-i/
4BB-/	.	.	4d/
2C/	2B-\	.	2e-i/
2C/	2A/	4F/	2e-i/
.	.	4E-i/	.
=17	=17	=17	=17
0BB-	0B-	0F	0d
=18	=18	=18	=18
2r	2r	2r	2r
1BB-	1B-	1F	2d/
.	.	.	1d
2BB-/	2B-\	[2G/	.
=19	=19	=19	=19
2.BB-/	0B-	4G/]	1f
.	.	4F/	.
.	.	1F	.
4AA/	.	.	.
1GG	.	.	1g
.	.	2E/	.
=20	=20	=20	=20
2FF/	2.A/	2F/	1.a
2.F\	.	1D	.
.	4G/	.	.
.	4A/	.	.
4E\	4B-\	.	.
2C/	[2c\	2E/	2g/
=21	=21	=21	=21
1D	2c\]	1F	2f/
.	2B-\	.	4e/
.	.	.	4d/
2C/	2.c\	2G/	2e/
[2F\	.	4A/	[2a/
.	4B-\	4B-\	.
=22	=22	=22	=22
2F\]	2A/	2c\	4a/]
.	.	.	4g/
2BB-/	2B-\	2d\	1f
1C	1G	1c	.
.	.	.	2e/
=23	=23	=23	=23
0FF;	0F;	0A;	0f;
=24	=24	=24	=24
1r	1r	1r	1r
1FF	1F	1A	1c
=25	=25	=25	=25
1.BB-	1.F	1.B-	1.d
2BB-/	2F/	2B-\	2d/
=26	=26	=26	=26
1BB-	1F	1B-	1d
1D	1F	1A	1f
=27	=27	=27	=27
2C/	0G	0c	2e/
1C	.	.	1e
4BB-/	.	.	4d/
4AA/	.	.	4c/
=28	=28	=28	=28
0GG	1.G	1.B-	[0d
.	4F/	4A/	.
.	4E/	4G/	.
=29	=29	=29	=29
1r	[0D	1F	0d]
1BB-	.	1f	.
=30	=30	=30	=30
0F	0D]	1.f	1r
.	.	.	1d
.	.	4e\	.
.	.	4d\	.
=31	=31	=31	=31
1F	1r	1c	0a
[1F	1A	[1f	.
=32	=32	=32	=32
1F]	0c	0f_	1a
1F	.	.	1a
=33	=33	=33	=33
0BB-	1.d	1f]	1.b-
.	.	1f	.
.	4c\	.	4a/
.	4B-\	.	4g/
=34	=34	=34	=34
2F\	2c\	1f	2.a/
2D\	2d\	.	.
.	.	.	4b-\
2G\	2B-\	2e\	2g/
2F\	2c\	2f\	[2a/
=35	=35	=35	=35
1E-i	1G	2B-\	4a/]
.	.	.	4g/
.	.	2c\	1g
1D	1A	1d	.
.	.	.	2f#i/
=36	=36	=36	=36
0GG	1G	0d	1g
.	1r	.	1r
=37	=37	=37	=37
1r	1G	1r	1e
1C	1G	1c	1e
=38	=38	=38	=38
1C	1r	1c	1r
1r	[1G	1r	[1e
=39	=39	=39	=39
1C	1G]	1c	1e]
1C	1G	1c	1e
=40	=40	=40	=40
1D	1F	1B-	1d
1D	1F	1A	1d
=41	=41	=41	=41
0AA	1E	0A	0c
.	2r	.	.
.	[2C/	.	.
=42	=42	=42	=42
2r	4C/]	0r	0r
.	4D/	.	.
2.C/	4E/	.	.
.	4F/	.	.
.	2G/	.	.
4BB-/	.	.	.
4AA/	[2A/	.	.
4GG/	.	.	.
=43	=43	=43	=43
2AA/	4A/]	0r	0r
.	4G/	.	.
2BB-/	1F	.	.
1GG	.	.	.
.	2E/	.	.
=44	=44	=44	=44
0FF	0F	1r	2r
.	.	.	2.c/
.	.	2r	.
.	.	.	4d/
.	.	[2c\	4e/
.	.	.	4f/
=45	=45	=45	=45
0r	0r	4c\]	2g/
.	.	4B-\	.
.	.	4A/	2.a/
.	.	4G/	.
.	.	2A/	.
.	.	.	4g/
.	.	2B-\	[2f/
=46	=46	=46	=46
0r	0r	1G	2f/]
.	.	.	2e/
.	.	1F	1f
=47	=47	=47	=47
1FF	1C	2r	0r
.	.	2F/	.
2BB-/	2D/	2G/	.
2AA/	2E/	[2A/	.
=48	=48	=48	=48
2.D\	2.F/	2A/]	0r
.	.	2.A/	.
4D\	4F/	.	.
2D\	2F/	.	.
.	.	4A/	.
2D\	2F/	[2A/	.
=49	=49	=49	=49
2D\	2F/	2A/]	0r
2D\	2F/	2A/	.
2.C/	2.E/	2A/	.
.	.	2A/	.
4BB-/	4D/	.	.
=50	=50	=50	=50
2C/	2E/	2G/	0r
2.D\	2.F/	2.B-\	.
4C/	4E/	4A/	.
4BB-/	[2E/	[2A/	.
4AA/	.	.	.
=51	=51	=51	=51
1BB-	2E/]	2A/]	0r
.	2D/	2G/	.
1AA	1E	1A	.
=52	=52	=52	=52
2r	2r	2r	0r
1FF	1F	1A	.
2FF/	2F/	2A/	.
=53	=53	=53	=53
2.FF/	2F/	2.A/	0r
.	4E/	.	.
4GG/	4D/	4G/	.
2AA/	2C/	4F/	.
.	.	4E/	.
[2BB-/	[2D/	[2G/	.
=54	=54	=54	=54
4BB-/]	2D/]	4G/]	0r
4AA/	.	4F/	.
4GG/	1C	1F	.
4FF/	.	.	.
1GG	.	.	.
.	2BB-/	2E/	.
=55	=55	=55	=55
[0FF	1C	2F/	[0f
.	.	2.F/	.
.	2r	.	.
.	.	4G/	.
.	[2F/	4A/	.
.	.	4F/	.
=56	=56	=56	=56
0FF]	4F/]	4A/	0f]
.	4G/	4B-\	.
.	4A/	2.c\	.
.	4F/	.	.
.	2A/	.	.
.	.	4F/	.
.	[2B-\	[2f\	.
=57	=57	=57	=57
0r	4B-\]	2f\]	0g
.	4A/	.	.
.	4G/	4e\	.
.	4F/	4d\	.
.	1G	2e\	.
.	.	4f\	.
.	.	4e\	.
=58	=58	=58	=58
0r	2r	1f	1a
.	2d\	.	.
.	2c\	2r	[1a
.	2d\	2d\	.
=59	=59	=59	=59
0r	2.A/	2c\	1a]
.	.	2d\	.
.	4B-\	.	.
.	2c\	2.A/	1a
.	[2F/	.	.
.	.	4B-\	.
=60	=60	=60	=60
0r	4F/]	2c\	1a
.	4G/	.	.
.	4A/	2.F/	.
.	4B-\	.	.
.	2.c\	.	1a
.	.	4G/	.
.	.	4A/	.
.	4d\	4B-\	.
=61	=61	=61	=61
0r	2e\	2c\	1a
.	1f	2A/	.
.	.	2B-\	1g
.	2e\	2c\	.
=62	=62	=62	=62
0r	2f\	2F/	1a
.	2F/	1f	.
.	[1G	.	[1b-
.	.	4e\	.
.	.	4d\	.
=63	=63	=63	=63
0r	1G]	1e	2b-\]
.	.	.	4a/
.	.	.	4g/
.	2F/	2f\	2a/
.	[2G/	[2d\	[2b-\
=64	=64	=64	=64
0r	4G/]	4d\]	4b-\]
.	4A/	4c\	4a/
.	2F/	4B-\	1a
.	.	4A/	.
.	1G	1B-	.
.	.	.	2g/
=65	=65	=65	=65
1r	1D	1A	1a
2r	2r	2r	2r
2D\	2d\	2f\	2a/
=66	=66	=66	=66
1F	1c	1f	1a
1F	1c	1f	1a
=67	=67	=67	=67
1r	1r	1r	1r
1D	1d	1f	1a
=68	=68	=68	=68
1.F	1.c	1.f	1.a
2F\	2c\	2f\	2a/
=69	=69	=69	=69
0C	0c	0e	0g
=70	=70	=70	=70
2.D\	1A	1d	2.f/
4E\	.	.	4g/
2F\	2.A/	[1c	4a/
.	.	.	4b-\
[2FF/	.	.	[2a/
.	4G/	.	.
=71	=71	=71	=71
4FF/]	4A/	2c\]	2a/]
4GG/	4B-\	.	.
4AA/	2.c\	4B-\	4g/
4BB-/	.	4A/	4f/
2C/	.	2G/	4e/
.	4B-\	.	4d/
2FF/	4A/	[2c\	[2a/
.	4G/	.	.
=72	=72	=72	=72
2F\	2A/	2c\]	4a/]
.	.	.	4g/
2BB-/	2B-\	2d\	1f
1C	1G	1c	.
.	.	.	2e/
=73	=73	=73	=73
1r	1F	1r	1f
1D	1r	1A	1r
=74	=74	=74	=74
0BB-	1F	0B-	1d
.	[1F	.	[1d
=75	=75	=75	=75
1r	1F]	1r	1d]
1BB-	1r	1B-	1r
=76	=76	=76	=76
0BB-	1F	0B-	1d
.	[1F	.	[1d
=77	=77	=77	=77
1BB-	1F]	1B-	1d]
1BB-	1F	1B-	1d
=78	=78	=78	=78
0GG	0G	0B-	0d
=79	=79	=79	=79
0AA	0E	[0A	[0c
=80	=80	=80	=80
2r	2r	1A]	0c]
2AA/	2E/	.	.
2AA/	2E/	2r	.
2AA/	2E/	2A/	.
=81	=81	=81	=81
1D	1F	2A/	0r
.	.	2B-\	.
4C/	1G	2.c\	.
4BB-/	.	.	.
4C/	.	.	.
4D\	.	4B-\	.
=82	=82	=82	=82
2E\	2G/	2c\	1r
2.F\	2.A/	2.d\	.
.	.	.	2r
4E\	4G/	4c\	.
4D\	[2G/	[2c\	2c/
4C/	.	.	.
=83	=83	=83	=83
1D	2G/]	2c\]	2d/
.	4F/	4Bni\	1f
.	4E/	4A/	.
1D	1F	1B-	.
.	.	.	4e/
.	.	.	4d/
=84	=84	=84	=84
0C	0G	0c	0e
=85	=85	=85	=85
1r	1r	1r	1r
1C	1G	1c	1e
=86	=86	=86	=86
1C	1G	1c	1e
1C	1G	1c	1e
=87	=87	=87	=87
1AA	1A	1c	1f
1GG	1B-	1d	1g
=88	=88	=88	=88
0C	0G	0c	0e
=89	=89	=89	=89
1.BB-	1.d	1.f	1r
.	.	.	[1b-
2BB-/	2d\	2f\	.
=90	=90	=90	=90
0BB-	1d	0f	2b-\]
.	.	.	2b-\
.	1d	.	1b-
=91	=91	=91	=91
1F	1c	1f	1a
2G\	2B-\	2e\	2g/
[2F\	[2c\	[2f\	[2a/
=92	=92	=92	=92
4F\]	4c\]	4f\]	4a/]
4G\	4B-\	4e\	4g/
2E\	4A/	4d\	1g
.	4G/	4c\	.
1D	1A	1d	.
.	.	.	2f#i/
=93	=93	=93	=93
1r	0G	1d	0g
[1C	.	2r	.
.	.	[2G/	.
=94	=94	=94	=94
1C]	1r	2G/]	0r
.	.	1A	.
1D	1F	.	.
.	.	[2B-\	.
=95	=95	=95	=95
1E	1G	2B-\]	1r
.	.	2.c\	.
1F	1A	.	1c
.	.	4B-\	.
.	.	4A/	.
.	.	4G/	.
=96	=96	=96	=96
1D	1B-	1F	1d
1C	[1G	2r	1e
.	.	[2c\	.
=97	=97	=97	=97
0D	2G/]	2c\]	1.f
.	4F/	4Bni\	.
.	4E/	4A/	.
.	1F	1Bni	.
.	.	.	4e/
.	.	.	4d/
=98	=98	=98	=98
0C	0G	[0c	[0e
=99	=99	=99	=99
0AA	0A	0c]	0e]
=100	=100	=100	=100
1.D	2r	1A	[0d
.	1F	.	.
.	.	2r	.
2D\	2F/	[2B-\	.
=101	=101	=101	=101
0D	0F	2B-\]	0d]
.	.	2B-\	.
.	.	1B-	.
=102	=102	=102	=102
2r	2r	2r	0r
2D\	2F/	2B-\	.
2D\	2F/	2B-\	.
2D\	2F/	2B-\	.
=103	=103	=103	=103
2.C/	2.E/	2.A/	0r
4BB-/	4D/	4G/	.
2AA/	2C/	4F/	.
.	.	4E/	.
[2BB-/	[2D/	[2G/	.
=104	=104	=104	=104
4BB-/]	4D/]	2G/]	2r
4AA/	4C/	.	.
2FF/	1C	1F	2b-\
1GG	.	.	2b-\
.	2BB-/	2E/	2b-\
=105	=105	=105	=105
2.FF/	1.C	4F/	2.a/
.	.	4G/	.
.	.	4A/	.
4GG/	.	4B-\	8g/L
.	.	.	8f/J
4AA/	.	4c\	4e/
4BB-/	.	4d\	4d/
4C/	[2c\	4e\	[2g/
4D\	.	4f\	.
=106	=106	=106	=106
2E\	2c\]	2e\	2g/]
2F\	4B-\	2.c\	1f
.	4A/	.	.
1C	1G	.	.
.	.	4B-\	.
.	.	2c\	2e/
=107	=107	=107	=107
1FF	1F	1A	1f
1r	1r	1r	1r
=108	=108	=108	=108
0FF	0F	0A	0c
=109	=109	=109	=109
0FF	1F	1A	1c
.	[1F	1A	1c
=110	=110	=110	=110
1BB-	1F]	1B-	2.d/
.	.	.	4c/
1AA	1F	1c	[1f
=111	=111	=111	=111
0GG	1.G	1.B-	2f/]
.	.	.	4e/
.	.	.	4d/
.	.	.	1e
.	4F/	4A/	.
.	4G/	4G/	.
=112	=112	=112	=112
0FF	0A	0c	0f
=113	=113	=113	=113
1r	1r	1r	1r
1FF	1A	1c	1f
=114	=114	=114	=114
0GG	0G	0B-	0d
=115	=115	=115	=115
1GG	1G	1B-	1d
[1AA	[1E	[1A	[1c
=116	=116	=116	=116
2AA/]	2E/]	2A/]	2c/]
2AA/	2E/	2A/	2c/
1AA	1E	[1A	[1c
=117	=117	=117	=117
2r	2r	1A]	1c]
1AA	2E/	.	.
.	1E	2r	2r
2AA/	.	[2A/	[2c/
=118	=118	=118	=118
1AA	0E	2A/]	2c/]
.	.	2A/	2c/
1AA	.	1A	1c
=119	=119	=119	=119
1GG	1G	1B-	2d/
.	.	.	2g/
1AA	1C	4A/	2e/
.	.	4B-\	.
.	.	4c\	[2f/
.	.	4d\	.
=120	=120	=120	=120
0BB-	1.D	2B-\	4f/]
.	.	.	4e/
.	.	1A	4d/
.	.	.	4c/
.	.	.	1d
.	4C/	2G/	.
.	4D/	.	.
=121	=121	=121	=121
0AA	0E	0A	0c
=122	=122	=122	=122
0r	0A	0r	2r
.	.	.	1f
.	.	.	4e/
.	.	.	4d/
=123	=123	=123	=123
0r	1A	0r	2f/
.	.	.	1e
.	1A	.	.
.	.	.	[2a/
=124	=124	=124	=124
0r	0B-	0r	2a/]
.	.	.	4g/
.	.	.	4f/
.	.	.	1g
=125	=125	=125	=125
0AA	[0A	1E	0a
.	.	[1F	.
=126	=126	=126	=126
1AA	1A]	2F/]	2r
.	.	4E/	2cc\
.	.	4F/	.
1AA	2r	2E/	2cc\
.	2E/	[2A/	2cc\
=127	=127	=127	=127
0BB-	2E/	2A/]	0dd
.	4D/	4G/	.
.	4C/	4F/	.
.	1D	1G	.
=128	=128	=128	=128
0AA	0E	0A	0cc
=129	=129	=129	=129
1r	1r	1r	1r
1AA	1A	1c	1cc
=130	=130	=130	=130
1D	1F	2d\	2b-\
.	.	1c	1a
1D	1F	.	.
.	.	2Bni\	4g/
.	.	.	4f/
=131	=131	=131	=131
0C	0G	0c	0e
=132	=132	=132	=132
1r	1r	1r	1r
1C	1G	1c	1e
=133	=133	=133	=133
1.C	1.G	1.c	1.e
2C/	2A/	2c\	2e/
=134	=134	=134	=134
0AA	0A	0c	1e
.	.	.	1f
=135	=135	=135	=135
1GG	1B-	2d\	2g/
.	.	2e\	2g/
2FF/	2c\	1f	1a
2FF/	2c\	.	.
=136	=136	=136	=136
2GG/	2B-\	2e\	2g/
2.FF/	1c	1f	1a
4GG/	.	.	.
4AA/	4B-\	4e\	4g/
4BB-/	4A/	4d\	4f/
=137	=137	=137	=137
[0C	2.G/	2.c\	2.e/
.	4A/	4B-\	4d/
.	2G/	4c\	4e/
.	.	4d\	4f/
.	[2c\	[2e-i\	[2g/
=138	=138	=138	=138
0C]	2c\]	4e-\]	4g/]
.	.	4d\	4f/
.	4B-\	4c\	1f
.	4A/	4B-\	.
.	1G	1c	.
.	.	.	2e/
=139	=139	=139	=139
[0FF	[0F	1A	0f
.	.	2r	.
.	.	[2f\	.
=140	=140	=140	=140
0FF]	0F]	2f\]	2r
.	.	2f\	1cc
.	.	2f\	.
.	.	4e\	[2cc\
.	.	4d\	.
=141	=141	=141	=141
0r	0r	2.c\	4cc\]
.	.	.	4b-\
.	.	.	4a/
.	.	4B-\	4g/
.	.	4c\	2a/
.	.	4A/	.
.	.	[2d\	[2b-\
=142	=142	=142	=142
0r	0r	4d\]	4b-\]
.	.	4c\	4a/
.	.	4B-\	1a
.	.	4A/	.
.	.	1B-	.
.	.	.	2g/
=143	=143	=143	=143
2r	1r	0A	0a
1F	.	.	.
.	2r	.	.
2F\	[2c\	.	.
=144	=144	=144	=144
2F\	2c\]	0r	0r
4E\	2.c\	.	.
4D\	.	.	.
2.C/	.	.	.
.	4B-\	.	.
.	4A/	.	.
4BB-/	4G/	.	.
=145	=145	=145	=145
4C/	2A/	2r	1r
4AA/	.	.	.
2.D\	2.B-\	2.F/	.
.	.	.	2r
4C/	4A/	4E/	.
2AA/	[2c\	2A/	[2e/
=146	=146	=146	=146
2C/	4c\]	2G/	2e/]
.	4B-\	.	.
2D\	1A	2F/	1f
1BB-	.	1D	.
.	2G/	.	4e/
.	.	.	4d/
=147	=147	=147	=147
1AA	1A	1E	1c
1r	1r	1r	1r
=148	=148	=148	=148
*M3/1	*M3/1	*M3/1	*M3/1
*met(O/3)	*met(O/3)	*met(O/3)	*met(O/3)
0AA	0E	0A	0c
1AA	1E	1A	1c
=149	=149	=149	=149
0BB-	0D	0G	0d
1AA	1E	1A	1c
=150	=150	=150	=150
1D	1F	1A	1.d
1GG	1G	1B-	.
.	.	.	2e/
1AA	1E	1A	1c
=151	=151	=151	=151
1r	1r	1r	1r
0FF	0F	1.A	1.c
.	.	2B-\	2B-/
=152	=152	=152	=152
1C	1E	1c	2A/
.	.	.	2G/
1GG	1G	1.d	1.B-
1BB-	1F	.	.
.	.	4c\	2A/
.	.	4d\	.
=153	=153	=153	=153
1C	1E	1c	1.A
1D	1F	0B-	.
.	.	.	4G/
.	.	.	4A/
1E	1G	.	1G
=154	=154	=154	=154
*M2/1	*M2/1	*M2/1	*M2/1
*met(C|)	*met(C|)	*met(C|)	*met(C|)
2F\	1D	0A	1A
2.D\	.	.	.
.	1F	.	2r
4C/	.	.	.
4BB-/	.	.	[2d/
4AA/	.	.	.
=155	=155	=155	=155
0GG	0G	0B-	2d/]
.	.	.	2d/
.	.	.	1d
=156	=156	=156	=156
1AA	2E/	2r	0c
.	1F	2A/	.
2r	.	2A/	.
2AA/	4E/	2A/	.
.	4D/	.	.
=157	=157	=157	=157
2AA/	1C	1.c	2r
2AA/	.	.	2e/
[1C	2r	.	2e/
.	2E/	4B-\	2e/
.	.	4A/	.
=158	=158	=158	=158
2C/]	2E/	2.G/	1.g
4BB-/	2E/	.	.
4AA/	.	4A/	.
2.GG/	[1G	4B-\	.
.	.	4c\	.
.	.	[2d\	4f/
4AA/	.	.	4e/
=159	=159	=159	=159
4BB-/	2G/]	4d\]	2.d/
4C/	.	4e\	.
1D	4F/	1f	.
.	4E/	.	4e/
.	2.D/	.	4f/
.	.	.	4g/
4C/	.	4e\	[2a/
4BB-/	4E/	4d\	.
=160	=160	=160	=160
2D\	2F/	2d\	4a/]
.	.	.	4g/
2E\	2G/	2c\	1g
1D	1A	[1d	.
.	.	.	2f#i/
=161	=161	=161	=161
2r	2G/	0d]	0g
1G	1B-	.	.
4F\	4A/	.	.
4E\	4G/	.	.
=162	=162	=162	=162
1D	[0F	2r	0a
.	.	2d\	.
2r	.	2d\	.
2D\	.	2d\	.
=163	=163	=163	=163
2D\	1F]	1.f	2r
2D\	.	.	2a/
[1F	2r	.	2a/
.	2A/	4e\	2a/
.	.	4d\	.
=164	=164	=164	=164
2F\]	2A/	2.c\	1.cc
4E\	2A/	.	.
4D\	.	4d\	.
2.C/	[1c	4e\	.
.	.	4f\	.
.	.	[2g\	4b-\
4D\	.	.	4a/
=165	=165	=165	=165
4E\	2c\]	4g\]	2.g/
4F\	.	4f\	.
1G	4B-\	[1.d	.
.	4A/	.	4a/
.	2.G/	.	4b-\
.	.	.	4cc\
4F\	.	.	[2dd\
4E\	4A/	.	.
=166	=166	=166	=166
2G\	2B-\	2d\]	2dd\]
2E\	2c\	2G/	1cc
2F\	1d	2A/	.
2G\	.	2B-\	2b-\
=167	=167	=167	=167
2C/	[0c	2G/	1cc
1F	.	1A	.
.	.	.	2r
4E\	.	4G/	[2cc\
4D\	.	4F/	.
=168	=168	=168	=168
2E\	1c]	2G/	4cc\]
.	.	.	4b-\
1F	.	2A/	1a
.	2.A/	1F	.
4E\	.	.	4g/
4D\	4B-\	.	4f/
=169	=169	=169	=169
1C	2.c\	2G/	2e/
.	.	2.c\	1g
.	4B-\	.	.
1D	2.A/	.	.
.	.	4A/	.
.	.	2B-\	[2f/
.	8G/L	.	.
.	8F/J	.	.
=170	=170	=170	=170
0C	0G	0c	2f/]
.	.	.	4e/
.	.	.	4d/
.	.	.	1e
=171	=171	=171	=171
0FFl	0Fl	0cl	0fl
!!LO:LB:i:g=z
=172||	=172||	=172||	=172||
*>B	*>B	*>B	*>B
!!section: Secunda pars: Sagitta Jonathe
!!!OMD: Secunda pars: Sagitta Jonathe
*M2/1	*M2/1	*M2/1	*M2/1
*met(C|)	*met(C|)	*met(C|)	*met(C|)
0r	2r	0r	0r
.	2F/	.	.
.	2.F/	.	.
.	4G/	.	.
=173	=173	=173	=173
0r	4A/	0r	2r
.	4F/	.	.
.	2.B-\	.	2f/
.	.	.	2.f/
.	4A/	.	.
.	[2A/	.	.
.	.	.	4g/
=174	=174	=174	=174
0r	2A/]	0r	4a/
.	.	.	4f/
.	2G/	.	1b-
.	2A/	.	.
.	[2c\	.	[2a/
=175	=175	=175	=175
0r	2c\]	0r	2a/]
.	4B-\	.	4g/
.	4A/	.	4f/
.	2B-\	.	2.g/
.	2c\	.	.
.	.	.	4a/
=176	=176	=176	=176
0r	0F	0r	1a
.	.	.	2r
.	.	.	2cc\
=177	=177	=177	=177
0r	2r	0r	2.cc\
.	2f\	.	.
.	.	.	4b-\
.	2.f\	.	2a/
.	.	.	2g/
.	4e\	.	.
=178	=178	=178	=178
0r	2d\	0r	2f/
.	2c\	.	2.g/
.	2B-\	.	.
.	.	.	4f/
.	[2c\	.	4e/
.	.	.	4d/
=179	=179	=179	=179
0r	4c\]	0r	2c/
.	4B-\	.	.
.	4A/	.	4cc\
.	4G/	.	4b-\
.	2F/	.	4a/
.	.	.	4g/
.	2c\	.	[2a/
=180	=180	=180	=180
0r	4B-\	0r	4a/]
.	4A/	.	4g/
.	4G/	.	1f
.	4F/	.	.
.	1G	.	.
.	.	.	2e/
=181	=181	=181	=181
1r	[0F	0r	[0f
2r	.	.	.
2FF/	.	.	.
=182	=182	=182	=182
2.FF/	0F]	1r	0f]
4GG/	.	.	.
4AA/	.	2r	.
4FF/	.	.	.
[2BB-/	.	2F/	.
=183	=183	=183	=183
4BB-/]	0r	2.F/	0r
4AA/	.	.	.
1AA	.	.	.
.	.	4G/	.
.	.	4A/	.
.	.	4F/	.
2GG/	.	[2B-\	.
=184	=184	=184	=184
2AA/	0r	4B-\]	0r
.	.	4A/	.
2C/	.	1A	.
1BB-	.	.	.
.	.	2G/	.
=185	=185	=185	=185
0AA	0r	1A	0r
.	.	2r	.
.	.	2A/	.
=186	=186	=186	=186
2r	0r	2.c\	0r
2AA/	.	.	.
.	.	4B-\	.
2.C/	.	2A/	.
.	.	2G/	.
4BB-/	.	.	.
=187	=187	=187	=187
2AA/	0r	4F/	0r
.	.	4G/	.
2GG/	.	4A/	.
.	.	4B-\	.
2FF/	.	2A/	.
2C/	.	[2G/	.
=188	=188	=188	=188
4BB-/	0r	4G/]	1r
4AA/	.	4F/	.
4GG/	.	1F	.
4FF/	.	.	.
1GG	.	.	2r
.	.	2E/	2a/
=189	=189	=189	=189
2.FF/	2r	2F/	2.cc\
.	2A/	4E/	.
4GG/	.	4D/	4b-\
4AA/	2.c\	2C/	2a/
4BB-/	.	.	.
2C/	.	[2c\	2g/
.	4B-\	.	.
=190	=190	=190	=190
2FF/	2A/	4c\]	4f/
.	.	4d\	4g/
2C/	2G/	2e\	4a/
.	.	.	4b-\
2D\	2F/	2f\	2a/
2E\	2G/	2e\	[2g/
=191	=191	=191	=191
2F\	2A/	2c\	4g/]
.	.	.	4f/
2BB-/	2B-\	2d\	1f
1C	1G	1c	.
.	.	.	2e/
=192	=192	=192	=192
0FF	0F	0c	0f
=193	=193	=193	=193
0r	2r	0r	2r
.	2A/	.	2c/
.	2B-\	.	2d/
.	2B-\	.	2d/
=194	=194	=194	=194
0r	2A/	0r	2.c/
.	1c	.	.
.	.	.	4d/
.	.	.	4e/
.	.	.	4f/
.	4B-\	.	[2g/
.	4A/	.	.
=195	=195	=195	=195
1r	4B-\	1r	4g/]
.	4A/	.	4f/
.	4G/	.	1f
.	4F/	.	.
1C	1G	2r	.
.	.	2c\	2e/
=196	=196	=196	=196
2D\	1F	2c\	1f
2D\	.	2B-\	.
2C/	1r	2.c\	1r
[2F\	.	.	.
.	.	4B-\	.
=197	=197	=197	=197
4F\]	0r	4A/	0r
4E\	.	4G/	.
4D\	.	2.d\	.
4C/	.	.	.
2D\	.	.	.
.	.	4c\	.
[2G\	.	4B-\	.
.	.	4A/	.
=198	=198	=198	=198
2G\]	1r	2G/	2r
4F\	.	1c	2c/
4E\	.	.	.
1D	2r	.	1d
.	2F/	2Bni\	.
=199	=199	=199	=199
2C/	1G	1c	1e
2E\	.	.	.
1D	2.A/	1d	2.f/
.	4B-\	.	4g/
=200	=200	=200	=200
2C/	2c\	2e\	4a/
.	.	.	4f/
2BB-/	1d	2.f\	1b-
1F	.	.	.
.	.	4c\	.
.	[2c\	[2f\	2a/
=201	=201	=201	=201
0G	2c\]	2f\]	4b-\
.	.	.	4a/
.	4B-\	4e\	4g/
.	4A/	4d\	4f/
.	2.B-\	1e	1g
.	4c\	.	.
=202	=202	=202	=202
0F	0c	0f	0a
=203	=203	=203	=203
1r	1r	1r	1r
1F	1c	1f	1a
=204	=204	=204	=204
1F	1A	1c	1.a
1F	1A	1c	.
.	.	.	2g/
=205	=205	=205	=205
0BB-	0B-	0d	0f
=206	=206	=206	=206
0C	0G	0c	0e
=207	=207	=207	=207
1r	1r	1r	1r
1C	1G	[1c	1e
=208	=208	=208	=208
1.C	1G	1c]	1e
.	1G	1c	1e
2BB-/	.	.	.
=209	=209	=209	=209
2AA/	2A/	2c\	2f/
1GG	2.B-\	1d	2.g/
.	4G/	.	4f/
[2AA/	[2c\	4c\	4e/
.	.	4B-\	4d/
=210	=210	=210	=210
2AA/]	2c\]	2A/	2c/
4GG/	4B-\	2.c\	1f
4FF/	4A/	.	.
1C	1G	.	.
.	.	4B-\	.
.	.	2c\	2e/
=211	=211	=211	=211
0FF	0F	0A	0f
=212	=212	=212	=212
2r	0r	2r	0r
2F\	.	2A/	.
2F\	.	2A/	.
2F\	.	2A/	.
=213	=213	=213	=213
2E\	0r	2.G/	0r
1G	.	.	.
.	.	4A/	.
.	.	4B-\	.
.	.	4c\	.
4F\	.	[2d\	.
4E\	.	.	.
=214	=214	=214	=214
4F\	2r	2d\]	2r
4E\	.	.	.
4D\	2F/	1c	2f/
4C/	.	.	.
1D	2F/	.	2f/
.	2F/	2Bni\	2f/
=215	=215	=215	=215
2.C/	2G/	1.c	1e
.	2.A/	.	.
4BB-/	.	.	.
2AA/	.	.	2f/
.	4F/	.	.
[2GG/	[2B-\	[2d\	[2g/
=216	=216	=216	=216
2GG/]	4B-\]	2d\]	4g/]
.	4A/	.	4f/
1AA	1c	4c\	4e/
.	.	4B-\	4d/
.	.	1A	2c/
4GG/	4B-\	.	[2g/
4FF/	4A/	.	.
=217	=217	=217	=217
2GG/	2B-\	2d\	4g/]
.	.	.	4f/
2AA/	2A/	2c\	1f
2BB-/	1G	2d\	.
2C/	.	4c\	2e/
.	.	4B-\	.
=218	=218	=218	=218
*M3/1	*M3/1	*M3/1	*M3/1
*met(O/3)	*met(O/3)	*met(O/3)	*met(O/3)
0FF	0F	0c	0f
1r	1r	1r	1r
=219	=219	=219	=219
0FF	0C	0A	0f
[1BB-	[1D	[1B-	[1g
=220	=220	=220	=220
1BB-]	1D]	1B-]	1g]
0AA	0E	0c	0a
=221	=221	=221	=221
1.D	1.F	1.A	1.f
2D\	2F/	2A/	2f/
1D	1F	1A	1f
=222	=222	=222	=222
1D	1A	1d	1f
1D	1A	1d	1f
1BB-	1B-	1d	1f
=223	=223	=223	=223
1C	1G	1c	1e
1.D	1.F	1.B-	1.d
2AA/	2E/	2A/	2c/
=224	=224	=224	=224
1C	1.E	0G	1e
0BB-	.	.	1f
.	4D/	.	.
.	4C/	.	.
.	1D	1G	1g
=225	=225	=225	=225
0AA	0E	0A	0c
1r	1r	1r	1r
=226	=226	=226	=226
0AA	0E	0A	0c
[1AA	[1E	[1A	[1c
=227	=227	=227	=227
1AA]	1E]	1A]	1c]
0FF	0F	0A	0c
=228	=228	=228	=228
1BB-	1D	1F	1d
0GG	0G	0B-	0d
=229	=229	=229	=229
1AA	1E	1A	1c
1D	1F	1A	1d
1D	1F	1B-	1f
=230	=230	=230	=230
0C	0G	0c	0e
1r	1r	1r	1r
=231	=231	=231	=231
0F	0A	0c	0f
1F	1A	1c	1f
=232	=232	=232	=232
0BB-	1.B-	0d	0f
.	2A/	.	.
1C	1G	1c	1e
=233	=233	=233	=233
1D	1.F	1A	1f
1BB-	.	1B-	1.g
.	4E/	.	.
.	4F/	.	.
1C	1E	1G	.
.	.	.	4f/
.	.	.	4g/
=234	=234	=234	=234
0FF	0F	0c	0a
1r	1r	1r	1r
=235	=235	=235	=235
1F	1c	1f	1a
1F	1c	1f	1a
1F	1c	1f	1a
=236	=236	=236	=236
0C	0c	0e	0g
1C	1c	1e	1g
=237	=237	=237	=237
1F	1A	1c	1.a
0D	0B-	0d	.
.	.	.	2g/
.	.	.	1f
=238	=238	=238	=238
1C	1c	1G	1e
1D	1A	1d	1.f
1BB-	1B-	1d	.
.	.	.	2g/
=239	=239	=239	=239
0C	0G	0c	0e
1r	1r	1r	1r
=240	=240	=240	=240
1.C	1.G	1.c	1.e
4BB-/	2A/	2d\	2f/
4AA/	.	.	.
1GG	2B-\	1e	2g/
.	2G/	.	2e/
=241	=241	=241	=241
1FF	0c	1f	1a
1C	.	1e	1.g
1GG	1B-	1d	.
.	.	.	4f/
.	.	.	4g/
=242	=242	=242	=242
1AA	1A	1c	1.f
1BB-	0G	1d	.
.	.	.	4e/
.	.	.	4f/
1C	.	1c	1e
=243	=243	=243	=243
*M2/1	*M2/1	*M2/1	*M2/1
*met(C|)	*met(C|)	*met(C|)	*met(C|)
2.FF/	2.F/	1A	[0f
4GG/	8E/L	.	.
.	8D/J	.	.
4AA/	2C/	1r	.
4FF/	.	.	.
[2BB-/	[2D/	.	.
=244	=244	=244	=244
4BB-/]	4D/]	0F	0f]
4AA/	4C/	.	.
2.D\	2.F/	.	.
4C/	4E/	.	.
[2F\	2D/	.	.
=245	=245	=245	=245
2F\]	0C	0G	0r
4E\	.	.	.
4D\	.	.	.
2.E\	.	.	.
4F\	.	.	.
=246	=246	=246	=246
2.F\	2r	0A	0r
.	2F/	.	.
8E\L	.	.	.
8D\J	.	.	.
2C/	2E/	.	.
[2D\	[2F/	.	.
=247	=247	=247	=247
2D\]	2F/]	1A	0r
4C/	4E/	.	.
4BB-/	4D/	.	.
2AA/	2C/	1A	.
2D\	[2F/	.	.
=248	=248	=248	=248
2C/	4F/]	1A	0r
.	4E/	.	.
2.F\	2D/	.	.
.	2C/	[1A	.
4E\	.	.	.
2D\	[2F/	.	.
=249	=249	=249	=249
2C/	4F/]	1A]	0r
.	4E/	.	.
2.F\	2D/	.	.
.	2C/	[1A	.
4E\	.	.	.
2D\	2F/	.	.
=250	=250	=250	=250
2C/	2E/	1A]	0r
2.D\	2.F/	.	.
.	.	1A	.
4C/	4E/	.	.
2AA/	2C/	.	.
=251	=251	=251	=251
2BB-/	2D/	1G	0r
2C/	2E/	.	.
2D\	2F/	2r	.
[2GG/	[2G/	[2B-\	.
=252	=252	=252	=252
4GG/]	4G/]	2B-\]	0r
4AA/	4F/	.	.
2BB-/	2D/	4A/	.
.	.	4G/	.
2C/	2E/	2A/	.
[2D\	[2F/	[2B-\	.
=253	=253	=253	=253
4D\]	2F/]	4B-\]	0r
4C/	.	4A/	.
4BB-/	1E	1A	.
4AA/	.	.	.
1BB-	.	.	.
.	2D/	2G/	.
=254	=254	=254	=254
2.AA/	2E/	1A	0r
.	2.F/	.	.
8GG/L	.	.	.
8FF/J	.	.	.
1GG	.	1B-	.
.	8E/L	.	.
.	8F/J	.	.
.	2E/	.	.
=255	=255	=255	=255
1FF	2.F/	2.A/	[0f
.	4G/	4B-\	.
1r	4A/	4c\	.
.	4F/	4A/	.
.	[2B-\	[2d\	.
=256	=256	=256	=256
2r	2B-\]	2d\]	0f]
1F	4A/	4c\	.
.	4G/	4B-\	.
.	2A/	2c\	.
4E\	[2d\	[2f\	.
4D\	.	.	.
=257	=257	=257	=257
0G	4d\]	2f\]	0g
.	4c\	.	.
.	4B-\	4e\	.
.	4A/	4d\	.
.	2.B-\	1e	.
.	4c\	.	.
=258	=258	=258	=258
0F	1c	0f	0a
.	2r	.	.
.	2c\	.	.
=259	=259	=259	=259
0F	2.d\	2r	1a
.	.	2c\	.
.	4c\	.	.
.	2.f\	2d\	1a
.	.	2c\	.
.	4e\	.	.
=260	=260	=260	=260
1F	2c\	2.f\	1a
.	1f	.	.
.	.	4e\	.
[1F	.	2c\	1a
.	4e\	[2f\	.
.	4d\	.	.
=261	=261	=261	=261
1F]	1c	2f\]	2a/
.	.	4e\	2.cc\
.	.	4d\	.
1F	1A	2c\	.
.	.	.	4b-\
.	.	2f\	[2a/
=262	=262	=262	=262
0G	0B-	1d	2a/]
.	.	.	4g/
.	.	.	4f/
.	.	1d	1g
=263	=263	=263	=263
1D	[0A	2r	0a
.	.	2d\	.
2r	.	2c\	.
[2D\	.	[2d\	.
=264	=264	=264	=264
2D\]	1A]	2d\]	2r
2D\	.	4c\	1a
.	.	4B-\	.
2D\	2r	2.A/	.
4C/	[2A/	.	2a/
4BB-/	.	4B-\	.
=265	=265	=265	=265
2.AA/	2A/]	4c\	2a/
.	.	4d\	.
.	2A/	2e\	4g/
4BB-/	.	.	4f/
4C/	2A/	2.c\	4e/
4D\	.	.	4f/
2E\	4G/	.	[2g/
.	4F/	4B-\	.
=266	=266	=266	=266
2C/	2E/	2c\	4g/]
.	.	.	4f/
2D\	2F/	2B-\	1f
1C	1G	1c	.
.	.	.	2e/
=267	=267	=267	=267
1FF	1F	1A	1f
1r	1r	1r	1r
=268	=268	=268	=268
1.FF	1.F	1.A	1.c
2FF/	2F/	2A/	2c/
=269	=269	=269	=269
1BB-	1F	1B-	1d
1D	1F	1A	1f
=270	=270	=270	=270
0C	1G	0c	2e/
.	.	.	1e
.	1A	.	.
.	.	.	4d/
.	.	.	4c/
=271	=271	=271	=271
0BB-	1B-	0F	1d
.	2r	.	2r
.	2d\	.	2f/
=272	=272	=272	=272
0r	2d\	0r	2f/
.	2d\	.	2f/
.	2.c\	.	2e/
.	.	.	[2a/
.	4B-\	.	.
=273	=273	=273	=273
0r	2c\	0r	2a/]
.	2d\	.	4g/
.	.	.	4f/
.	1B-	.	1g
=274	=274	=274	=274
1r	0A	1r	0a
2r	.	2r	.
2D\	.	2F/	.
=275	=275	=275	=275
2D\	0r	2F/	0r
2D\	.	2F/	.
2.C/	.	2E/	.
.	.	[2A/	.
4BB-/	.	.	.
=276	=276	=276	=276
2C/	0r	2A/]	0r
2D\	.	4G/	.
.	.	4F/	.
1BB-	.	1G	.
=277	=277	=277	=277
1AA	1r	1A	1r
2r	2r	2r	2r
[2AA/	[2E/	[2A/	[2c/
=278	=278	=278	=278
2AA/]	2E/]	2A/]	2c/]
2AA/	2E/	2A/	2c/
1D	1F	1A	[1d
=279	=279	=279	=279
0GG	0G	0B-	1d]
.	.	.	1d
=280	=280	=280	=280
0AA	0E	1A	1c
.	.	2r	2r
.	.	[2A/	[2c/
=281	=281	=281	=281
2r	2r	2A/]	2c/]
1AA	1E	2A/	2c/
.	.	1A	2c/
2AA/	2E/	.	2c/
=282	=282	=282	=282
1D	1F	1A	2d/
.	.	.	1f
1D	1F	1B-	.
.	.	.	4e/
.	.	.	4d/
=283	=283	=283	=283
1.C	[0G	2c\	2.e/
.	.	1e	.
.	.	.	4c/
.	.	.	[1cc
4BB-/	.	4d\	.
4AA/	.	4c\	.
=284	=284	=284	=284
0GG	0G]	0d	2cc\]
.	.	.	4bni\
.	.	.	4a/
.	.	.	2.bni\
.	.	.	4cc\
=285	=285	=285	=285
1C	1G	1c	1cc
1r	1r	1r	1r
=286	=286	=286	=286
1D	1F	1f	1a
2D\	2F/	2f\	2a/
2D\	2F/	2f\	2a/
=287	=287	=287	=287
1D	1F	1f	1a
[1D	1F	2.d\	1a
.	.	4e\	.
=288	=288	=288	=288
2D\]	1A	1f	1a
2F\	.	.	.
2G\	2B-\	2d\	2g/
[2F\	[2c\	2f\	[2a/
=289	=289	=289	=289
2F\]	4c\]	1F	2a/]
.	4A/	.	.
4E\	2B-\	.	4g/
4D\	.	.	4f/
1C	2.c\	2G/	4e/
.	.	.	4d/
.	.	[2c\	[2g/
.	4B-\	.	.
=290	=290	=290	=290
1D	2A/	4c\]	2g/]
.	.	4B-\	.
.	4G/	4c\	1f
.	4F/	4B-\	.
1C	1G	1c	.
.	.	.	2e/
=291	=291	=291	=291
[0FF	[0F	1A	1f
.	.	1A	2r
.	.	.	2f/
=292	=292	=292	=292
1FF]	0F]	2r	2a/
.	.	2F/	2a/
2r	.	2A/	[1cc
2FF/	.	2A/	.
=293	=293	=293	=293
2AA/	2r	1.c	2cc\]
2AA/	2C/	.	4b-\
.	.	.	4a/
[1C	2E/	.	1g
.	2E/	4B-\	.
.	.	4A/	.
=294	=294	=294	=294
2C/]	1.G	1G	2r
4BB-/	.	.	1d
4AA/	.	.	.
1GG	.	2r	.
.	4F/	[2d\	2d/
.	4E/	.	.
=295	=295	=295	=295
2r	1D	2d\]	2f/
1D	.	2d\	2f/
.	2r	2f\	2f/
2D\	[2A/	2f\	4e/
.	.	.	4d/
=296	=296	=296	=296
2F\	2A/]	2f\	1c
2F\	2A/	4e\	.
.	.	4d\	.
2.F\	2c\	2c\	1f
.	2c\	2F/	.
8E\L	.	.	.
8D\J	.	.	.
=297	=297	=297	=297
1.C	2c\	1G	1.e
.	4B-\	.	.
.	4A/	.	.
.	2G/	2r	.
4BB-/	[2A/	[2E/	4d/
4AA/	.	.	4c/
=298	=298	=298	=298
1BB-	4A/]	2E/]	1d
.	8G/L	.	.
.	8A/J	.	.
.	2G/	2D/	.
1AA	1A	1E	1c
=299	=299	=299	=299
2r	2r	2r	2r
1AA	1E	1A	1c
2AA/	2E/	2A/	2c/
=300	=300	=300	=300
1AA	1E	2A/	1c
.	.	2.A/	.
2D\	2F/	.	2d/
.	.	4B-\	.
[2C/	[2G/	[2c\	[2e/
=301	=301	=301	=301
4C/]	2G/]	4c\]	4e/]
4AA/	.	4B-\	4c/
2C/	1E	1A	2e/
1BB-	.	.	2f/
.	2D/	2G/	2g/
=302	=302	=302	=302
0AA	1E	0A	1c
.	1r	.	1r
=303	=303	=303	=303
1r	1E	1r	1c
1AA	1r	1A	1r
=304	=304	=304	=304
1r	1E	1r	1c
1BB-	1D	1G	1d
=305	=305	=305	=305
1AA	1r	1A	1r
1AA	1A	1c	1e
=306	=306	=306	=306
1.C	1.G	1.c	1.e
4BB-/	2A/	2d\	2f/
4AA/	.	.	.
=307	=307	=307	=307
1GG	1B-	1e	1g
2FF/	1A	1f	1a
2F\	.	.	.
=308	=308	=308	=308
2E\	1c	2g\	2g/
1F	.	2f\	1a
.	2A/	1F	.
4E\	[2c\	.	4g/
4D\	.	.	4f/
=309	=309	=309	=309
2C/	4c\]	4G/	2e/
.	4B-\	2c\	.
2D\	4A/	.	1f
.	8G/L	4B-\	.
.	8F/J	.	.
1C	1G	1c	.
.	.	.	2e/
=310	=310	=310	=310
*M3/1	*M3/1	*M3/1	*M3/1
*met(O/3)	*met(O/3)	*met(O/3)	*met(O/3)
0F	0F	0c	0f
1r	1r	1r	1r
=311	=311	=311	=311
0D	0A	0d	0f
1G	1B-	1e	1g
=312	=312	=312	=312
0F	0c	0f	0a
1F	1c	1f	1a
=313	=313	=313	=313
0F	0c	0f	0a
1G	1B-	1e	1g
=314	=314	=314	=314
1F	1c	1f	1a
1.B-	1.d	1.g	1.b-
2A\	2c\	2f\	2cc\
=315	=315	=315	=315
1F	0c	0f	0a
0G	.	.	.
.	1B-	1e	1g
=316	=316	=316	=316
*M2/1	*M2/1	*M2/1	*M2/1
*met(C|)	*met(C|)	*met(C|)	*met(C|)
[0F	0c	[0f	[0a
=317	=317	=317	=317
0F]	2r	0f]	0a]
.	2c\	.	.
.	2d\	.	.
.	[2c\	.	.
=318	=318	=318	=318
0r	2c\]	2r	0r
.	4B-\	2c\	.
.	4A/	.	.
.	2B-\	2d\	.
.	2c\	[2c\	.
=319	=319	=319	=319
0r	2F/	2c\]	1cc
.	2A/	4B-\	.
.	.	4A/	.
.	2G/	2B-\	2dd\
.	[2A/	2c\	[2cc\
=320	=320	=320	=320
1F	4A/]	1F	2cc\]
.	4F/	.	.
.	2f\	.	4b-\
.	.	.	4a/
2G\	2d\	1r	2b-\
[2F\	2f\	.	2cc\
=321	=321	=321	=321
2F\]	2r	1f	1f
4E\	1c	.	.
4D\	.	.	.
2E\	.	2g\	2r
2F\	4B-\	[2f\	2a/
.	4A/	.	.
=322	=322	=322	=322
1BB-	2d\	4f\]	2.b-\
.	.	4e\	.
.	2.G/	1d	.
.	.	.	4a/
1C	.	.	1g
.	4F/	.	.
.	2E/	[2c\	.
=323	=323	=323	=323
0D	0F	2c\]	2f/
.	.	4Bni\	1a
.	.	4A/	.
.	.	1Bni	.
.	.	.	4g/
.	.	.	4f/
=324	=324	=324	=324
0C	0G	0c	0e
=325	=325	=325	=325
1r	1r	1r	1r
1C	1G	1c	1e
=326	=326	=326	=326
1AA	1A	1c	1f
1GG	1B-	1d	[1g
=327	=327	=327	=327
1.C	1.c	1e	2g/]
.	.	.	2f/
.	.	[1c	2e/
4D\	2B-\	.	2d/
4E\	.	.	.
=328	=328	=328	=328
1F	2A/	1c]	1c
.	2G/	.	.
1D	1F	1B-	[1f
=329	=329	=329	=329
0C	1G	0c	2f/]
.	.	.	4e/
.	.	.	4d/
.	1G	.	1e
=330	=330	=330	=330
0D	0F	1A	2f/
.	.	.	2.a/
.	.	1B-	.
.	.	.	4g/
.	.	.	[2f/
=331	=331	=331	=331
0C;	0G;	0c;	2f/]
.	.	.	4e/
.	.	.	4d/
.	.	.	1e;
=332	=332	=332	=332
0FFl	0Fl	0cl	0fl
==	==	==	==
*-	*-	*-	*-
!!!RDF**kern: l=long note in original notation
!!!RDF**kern: i=editorial accidental
!!!ENC:	Will Watson 15/07/2011
!!!END:	2011/07/15/
!!!EED:	Jesse Rodin
!!!EEV:	2011/10/25/
!!attribution-level@Jos: 4 (questionable)
!!!ONB:	Translated from MusicXML and edited on 2011/10/25/ by Craig Sapp
!!muse2ps: C^@{COM}{/}@{COA}?\n@{SCT}^u^(2) @{OTL2}^i2I150v90,90,90,150Q16
